X:1
T:Invention No 2 in C minor BWV 773
T:J. S. Bach
%%score { 1 | 2 }
L:1/8
Q:1/4=60
M:4/4
K:Eb
V:1 treble nm="Piano" snm="Pno."
V:2 bass 
V:1
"^Moderate" z!p! c/=B/ c/d/e/!<(!G/ A/_B/A/F/ f/e/d/c/!<)! | %1
 B/!>(!a/g/f/ e/d/c/B/ c/d/c/d/ e/4d/4e/4d/4e/4d/4c/4d/4!>)! | e/d/c/d/ e/f/g (3a/4g/4a/4g/f z f | %3
 (3g/4f/4g/4f/e z B eA- A/F/_B/F/ |!<(! Ge- e/d/e/B/ c/e/a/g/ f/e/d/c/!<)! | %5
 B/d/g/f/!>(! e/d/c/B/ A/c/f/c/ (3e/4d/4e/4dd/!>)! | e/!f!B/c/B/ g2- g/B/c/B/ a2- | %7
 a/B/e/d/ g/f/a/g/!>(! c'/b/a/g/ f/b/g/b/!>)! | g/b/a/b/ e/g/f/g/ c/d/e/f/ d/e/f/g/ | %9
 e/!<(!f/g/a/ b/a/c'/b/ a/g/f/a/!>(! d2-!<)!!>)! |!p! d/d/g/d/ e/c/d/B/ c2- c/g/^f/=a/ | %11
 c/B/c- c/^f/e/d/ b>e f>g- | gG/^F/ G/A/B/D/ E/=F/E/C/ c/B/A/G/ | %13
 ^F/!>(!e/d/c/ B/=A/G/F/ G/A/G/A/ B/4A/4B/4A/4B/4A/4G/4A/4!>)! | %14
 B/!<(!=A/G/A/ B/c/d (3e/4d/4e/4d/c z c!<)! | (3d/4c/4d/4c/B z!>(! =A BE- E/C/F/C/!>)! | %16
 D!f!B- B/=A/B/F/ G/B/e/d/ c/B/A/G/ | F/=A/d/c/ B/A/G/F/!>(! E/G/c/G/ (3B/4A/4B/4AA/!>)! | %18
 B/F/G/F/ d2- d/F/G/F/ e2- |!<(! e/F/B/=A/ d/c/e/d/!>(! g/f/e/d/ c/f/e/g/!<)!!>)! | %20
 d/c/B/=A/ d/c/e/d/ c/B/A/c/ f2- |!<(! f/G/c/B/ e/d/f/d/!>(! a/g/f/e/ d/g/f/g/!<)!!>)! | %22
!<(! e/d/c/=B/ c/d/f/G/ A/_B/A/F/ f/e/d/c/!<)! | %23
!>(! =B/a/g/f/ e/d/c/B/ c/d/c/d/ e/4d/4e/4d/4e/4d/4c/4d/4!>)! | %24
!>(! e/d/c/d/ e/f/g!f! (3a/4g/4a/4g/f z f!>)! | %25
 (3g/4f/4g/4f/e/d/ g/f/a/g/ g>a (5:4:5e/4d/4e/4d/4e/4d/>c/ | !fermata!c8 |] %27
V:2
 z8 | z8 | z!p! C/=B,/ C/D/E/G,/!<(! A,/_B,/A,/D,/[K:treble] F/E/D/C/!<)! | %3
 =B,/!>(!A/G/F/ E/D/C/=B,/ C/D/C/D/ E/4D/4E/4D/4E/4D/4C/4D/4!>)! | %4
 E/D/C/D/ E/F/G (3A/4G/4A/4G/F z F | (3G/4F/4G/4F/E z[K:bass] D EA,- A,/G,/B,/F,/ | %6
 G,!f!E- E/D/E/B,/[K:treble] C/E/A/G/ F/E/D/C/ | B,/D/G/F/ E/D/C/B,/ A,/C/F/C/ (3E/4D/4E/4DD/ | %8
 E/!<(!B,/C/B,/ G2- G/!<(!B,/C/B,/ A2-!<)!!<)! | A/B,/E/D/ G/F/A/G/ c/B/A/G/ F/B/A/B/ | %10
 G[K:bass]E,/F,/ G,/=A,/B,/D,/!<(! E,/F,/E,/C,/ C/B,/=A,/G,/!<)! | %11
 ^F,/!>(!E/D/C/ B,/=A,/G,/^F,/ G,/=A,/G,/A,/ B,/4A,/4B,/4A,/4B,/4A,/4G,/4A,/4!>)! | %12
 B,/=A,/G,/A,/ B,/C/D (3E/4D/4E/4D/C z C | (3D/4C/4D/4C/B, z =A, B,E,- E,/C,/=F,/C,/ | %14
 D,!mf!B,- B,/=A,/B,/F,/ G,/B,/E/D/ C/B,/A,/G,/ | %15
 F,/=A,/D/C/ B,/A,/G,/F,/ E,/G,/C/G,/ (3B,/4A,/4B,/4A,A,/ | B,/!f!F,/G,/F,/ D2- D/F,/G,/F,/ E2- | %17
 E/F,/B,/=A,/[K:treble] D/C/E/D/ G/F/E/D/ C/F/E/F/ | %18
 D/F/E/F/[K:bass] B,/D/C/D/ G,/=A,/B,/C/ A,/B,/C/D/ | %19
[K:treble] B,/C/D/E/ F/E/G/F/ E/D/C/D/[K:bass] =A,2- | %20
 A,/D,/G,/^F,/ B,/=A,/C/B,/ E/D/C/B,/ A,/D/C/D/ | =B,/F/E/D/ C/_B,/_A,/G,/ F,/E,/D,/C,/ G,G,, | %22
 C,>D, E,/F,/G, (3A,/4G,/4A,/4G,/F, z F, | %23
 (3G,/4F,/4G,/4F,/E, E,/F,/E,/D,/ C,/_B,,/A,,/G,,/ F,,/E,,/F,,/G,,/ | %24
 C,,C,/=B,,/ C,/D,/E,/G,,/ A,,/_B,,/A,,/F,,/ F,/E,/D,/C,/ | %25
 =B,,/A,/G,/F,/ E,/D,/C,/B,,/ C,/G,,/A,,/F,,/ G,,G,, | !fermata!C,,8 |] %27

